!!!OTL: VALET ZUM THOR HINAUS
!!!ARE: Europa, Mitteleuropa, Deutschland, Schlesien
!!!SCT: E0183
!!!YEM: Copyright 1995, estate of Helmut Schaffrath.
**kern
*ICvox
*Ivox
*M2/4
*k[f#]
*G:
{8d
=1
8g
8g
8g
8a
=2
4b
4a
=3
4g
8r}
{8g
=4
8f#
8g
8a
8b
=5
8cc
8b
8dd
8b
=6
4a
8r}
{8a
=7
8b
8a
8b
8cc
=8
8.dd
16ee
8dd}
{8dd
=9
8cc
8b
8a
8b
=10
8.cc
16dd
8cc}
{8cc
=11
8b
8a
8g
16dd
16cc
=12
4b
4a
=13
4g
8r}
==
!!!AGN: erzaehlendes Volks - Lied, Sage, Familien - Geschichte
!!!ONB: ESAC (Essen Associative Code) Database: ERK1
!!!AMT: simple duple
!!!AIN: vox
!!!EED: Helmut Schaffrath
!!!EEV: 1.0
*-
